X: 37658
T: Snowdrop
R: waltz
M: 3/4
K: Gmajor
V:1
d>c|"G"B2 B>A B>d|"Am"c>A E2 A>G|"D"F>G A>D E>F|"G"G>B d2 d>c|"G"B2 B>A B>d|
"Am"c>A E2 A>G|"D"F>G A>D E>F|"G"G4:|:B>c|"G"d2 g2 f2|"C"(e2 e>)d c>B|
"D"A>B c2 d2|"G"B2 d2 B>c|"G"d2 g2 f2|"C"(e2 e>)d c>B|"D"A>B c2 F2|"G"G4:|
V:2
B>A|G2 G>F G>B|A4 E2|D>E F2 A2|G4 B<A|G2 G>F G>B|
A4 E2|D>E F2 A2|G4:|:D2|(G2 G)>A B>d|(c2 c)>B A>G|
F>G A2 F2|G2 B2 D2|(G2 G)>A B>d|(c2 c)>B A>G|F>G c2 D2|G4:|

